X:89
T: BLAU BLAU BLAU SIND ALLE MEINE FARBEN
N: F0198
O: Europa, Mitteleuropa, Deutschland
R: ???
M: 4/4
L: 1/8
K: G
 | D2G2B3B | AGABG2Dz |
D2G2B3B | AGABG3z |
E2c2e3e | B2B2d4 |
A2A2c3A | F2F2G3z |
E2c2e3e | B2B2d4 |
A2A2c3A | F2F2G3z

@@@ Tune index: 5520
